X: 7075
T: Chris Stout
R: jig
M: 6/8
K: Dmixolydian
|:ded cAG|~A3 AGE|~G3 cGE|~G3 GEG|
ded cAG|~A3 AGE|~G3 cGE|~D3 D3:|
|:DFA =f3|edc dcA|~G3 cGE|cGE G3|
A3 =f3|edc dcA|~G3 cGE|~D3 D3:|

